; G-Code generated by Simplify3D(R) Version 4.0.1
; Dec 18, 2018 at 6:09:04 PM
; Settings Summary
;   processName,shell
;   applyToModels,fuselage_test_print_01.1.2(3)
;   profileName,Default (modified)
;   profileVersion,2016-04-14 15:44:02
;   baseProfile,Default
;   printMaterial,
;   printQuality,
;   printExtruders,
;   extruderName,Primary Extruder
;   extruderToolheadNumber,0
;   extruderDiameter,0.4
;   extruderAutoWidth,0
;   extruderWidth,0.42
;   extrusionMultiplier,1.02
;   extruderUseRetract,1
;   extruderRetractionDistance,0.8
;   extruderExtraRestartDistance,0.12
;   extruderRetractionZLift,0
;   extruderRetractionSpeed,1800
;   extruderUseCoasting,1
;   extruderCoastingDistance,0.2
;   extruderUseWipe,1
;   extruderWipeDistance,2
;   primaryExtruder,0
;   layerHeight,0.25
;   topSolidLayers,0
;   bottomSolidLayers,0
;   perimeterOutlines,1
;   printPerimetersInsideOut,1
;   startPointOption,3
;   startPointOriginX,200
;   startPointOriginY,0
;   sequentialIslands,0
;   spiralVaseMode,0
;   firstLayerHeightPercentage,90
;   firstLayerWidthPercentage,110
;   firstLayerUnderspeed,0.5
;   useRaft,0
;   raftExtruder,0
;   raftTopLayers,3
;   raftBaseLayers,2
;   raftOffset,3
;   raftSeparationDistance,0.14
;   raftTopInfill,100
;   aboveRaftSpeedMultiplier,0.3
;   useSkirt,1
;   skirtExtruder,0
;   skirtLayers,1
;   skirtOutlines,5
;   skirtOffset,0
;   usePrimePillar,0
;   primePillarExtruder,999
;   primePillarWidth,12
;   primePillarLocation,7
;   primePillarSpeedMultiplier,1
;   useOozeShield,0
;   oozeShieldExtruder,999
;   oozeShieldOffset,2
;   oozeShieldOutlines,1
;   oozeShieldSidewallShape,1
;   oozeShieldSidewallAngle,30
;   oozeShieldSpeedMultiplier,1
;   infillExtruder,0
;   internalInfillPattern,Rectilinear
;   externalInfillPattern,Rectilinear
;   infillPercentage,0
;   outlineOverlapPercentage,15
;   infillExtrusionWidthPercentage,100
;   minInfillLength,5
;   infillLayerInterval,1
;   internalInfillAngles,45,-45
;   overlapInternalInfillAngles,0
;   externalInfillAngles,45,-45
;   generateSupport,1
;   supportExtruder,0
;   supportInfillPercentage,30
;   supportExtraInflation,0
;   supportBaseLayers,0
;   denseSupportExtruder,0
;   denseSupportLayers,0
;   denseSupportInfillPercentage,70
;   supportLayerInterval,1
;   supportHorizontalPartOffset,0.3
;   supportUpperSeparationLayers,1
;   supportLowerSeparationLayers,1
;   supportType,0
;   supportGridSpacing,4
;   maxOverhangAngle,45
;   supportAngles,0
;   temperatureName,Primary Extruder,Heated Bed
;   temperatureNumber,0,1
;   temperatureSetpointCount,1,1
;   temperatureSetpointLayers,1,1
;   temperatureSetpointTemperatures,230,60
;   temperatureStabilizeAtStartup,1,1
;   temperatureHeatedBed,0,1
;   temperatureRelayBetweenLayers,0,0
;   temperatureRelayBetweenLoops,0,0
;   fanLayers,1
;   fanSpeeds,0
;   blipFanToFullPower,1
;   adjustSpeedForCooling,1
;   minSpeedLayerTime,15
;   minCoolingSpeedSlowdown,30
;   increaseFanForCooling,0
;   minFanLayerTime,45
;   maxCoolingFanSpeed,100
;   increaseFanForBridging,0
;   bridgingFanSpeed,100
;   use5D,1
;   relativeEdistances,0
;   allowEaxisZeroing,1
;   independentExtruderAxes,0
;   includeM10123,0
;   stickySupport,1
;   applyToolheadOffsets,0
;   gcodeXoffset,0
;   gcodeYoffset,0
;   gcodeZoffset,0
;   overrideMachineDefinition,1
;   machineTypeOverride,0
;   strokeXoverride,195
;   strokeYoverride,195
;   strokeZoverride,150
;   originOffsetXoverride,0
;   originOffsetYoverride,0
;   originOffsetZoverride,0
;   homeXdirOverride,-1
;   homeYdirOverride,-1
;   homeZdirOverride,-1
;   flipXoverride,1
;   flipYoverride,-1
;   flipZoverride,1
;   toolheadOffsets,0,0|0,0|0,0|0,0|0,0|0,0
;   overrideFirmwareConfiguration,1
;   firmwareTypeOverride,RepRap (Marlin/Repetier/Sprinter)
;   GPXconfigOverride,r2
;   baudRateOverride,115200
;   overridePrinterModels,0
;   printerModelsOverride
;   startingGcode,G28,
;   layerChangeGcode,
;   retractionGcode,
;   toolChangeGcode,
;   endingGcode,M104 S0 ; turn off extruder,M140 S0 ; turn off bed,G28 X0 ; home X axis,M84 ; disable motors,M107 ; turn off fan
;   exportFileFormat,gcode
;   celebration,0
;   celebrationSong,Random Song
;   postProcessing,
;   defaultSpeed,3600
;   outlineUnderspeed,0.7
;   solidInfillUnderspeed,0.8
;   supportUnderspeed,0.8
;   rapidXYspeed,7800
;   rapidZspeed,1002
;   minBridgingArea,5
;   bridgingExtraInflation,0
;   bridgingExtrusionMultiplier,1
;   bridgingSpeedMultiplier,0.3
;   useFixedBridgingAngle,0
;   fixedBridgingAngle,0
;   applyBridgingToPerimeters,0
;   filamentDiameters,1.75|1.75|1.75|1.75|1.75|1.75
;   filamentPricesPerKg,1000|1000|1000|1000|1000|1000
;   filamentDensities,1.25|1.25|1.25|1.25|1.25|1.25
;   useMinPrintHeight,0
;   minPrintHeight,0
;   useMaxPrintHeight,0
;   maxPrintHeight,1
;   useDiaphragm,0
;   diaphragmLayerInterval,20
;   robustSlicing,1
;   mergeAllIntoSolid,0
;   onlyRetractWhenCrossingOutline,0
;   retractBetweenLayers,0
;   useRetractionMinTravel,0
;   retractionMinTravel,3
;   retractWhileWiping,0
;   onlyWipeOutlines,1
;   avoidCrossingOutline,0
;   maxMovementDetourFactor,3
;   toolChangeRetractionDistance,0
;   toolChangeExtraRestartDistance,0
;   toolChangeRetractionSpeed,360
;   externalThinWallType,0
;   internalThinWallType,2
;   thinWallAllowedOverlapPercentage,10
;   singleExtrusionMinLength,1
;   singleExtrusionMinPrintingWidthPercentage,50
;   singleExtrusionMaxPrintingWidthPercentage,200
;   singleExtrusionEndpointExtension,0.2
;   horizontalSizeCompensation,0
G90
M82
M106 S255
G4 P500
M106 S0
M140 S60
M190 S60
M104 S230 T0
M109 S230 T0
G28
G92 E0
G1 E-0.8000 F1800
G1 Z0.225 F1002
; process shell
; layer 1, Z = 0.225
T0
; tool H0.250 W0.462
; skirt
G1 X72.389 Y72.474 F7800
G1 E0.1200 F540
G92 E0
G1 X73.183 Y71.694 E0.0546 F1152
G1 X73.227 Y71.653 E0.0575
G1 X74.248 Y70.770 E0.1236
G1 X74.298 Y70.729 E0.1268
G1 X75.370 Y69.924 E0.1924
G1 X75.422 Y69.887 E0.1955
G1 X76.538 Y69.160 E0.2608
G1 X76.585 Y69.131 E0.2635
G1 X77.517 Y68.598 E0.3161
G1 X77.560 Y68.575 E0.3184
G1 X78.530 Y68.085 E0.3717
G1 X78.588 Y68.057 E0.3748
G1 X80.370 Y67.304 E0.4696
G1 X80.429 Y67.282 E0.4727
G1 X81.521 Y66.904 E0.5293
G1 X81.578 Y66.886 E0.5322
G1 X83.434 Y66.373 E0.6265
G1 X83.492 Y66.358 E0.6294
G1 X84.926 Y66.058 E0.7012
G1 X84.976 Y66.048 E0.7037
G1 X86.570 Y65.803 E0.7827
G1 X86.613 Y65.798 E0.7848
G1 X87.881 Y65.662 E0.8473
G1 X87.913 Y65.659 E0.8489
G1 X89.140 Y65.569 E0.9091
G1 X89.184 Y65.567 E0.9113
G1 X91.252 Y65.512 E1.0126
G1 X91.277 Y65.512 E1.0138
G1 X103.723 Y65.512 E1.6234
G1 X103.748 Y65.512 E1.6246
G1 X105.816 Y65.567 E1.7260
G1 X105.860 Y65.569 E1.7281
G1 X107.090 Y65.659 E1.7885
G1 X107.128 Y65.662 E1.7904
G1 X108.693 Y65.841 E1.8675
G1 X108.732 Y65.846 E1.8695
G1 X110.034 Y66.050 E1.9340
G1 X110.094 Y66.061 E1.9370
G1 X112.227 Y66.539 E2.0441
G1 X112.287 Y66.554 E2.0471
G1 X113.442 Y66.892 E2.1061
G1 X113.486 Y66.906 E2.1083
G1 X114.561 Y67.278 E2.1640
G1 X114.600 Y67.293 E2.1661
G1 X115.402 Y67.610 E2.2083
G1 X115.437 Y67.625 E2.2102
G1 X116.435 Y68.068 E2.2636
G1 X116.478 Y68.088 E2.2660
G1 X117.440 Y68.575 E2.3188
G1 X117.483 Y68.598 E2.3212
G1 X118.415 Y69.131 E2.3738
G1 X118.462 Y69.160 E2.3765
G1 X119.578 Y69.887 E2.4417
G1 X119.630 Y69.924 E2.4448
G1 X120.702 Y70.729 E2.5105
G1 X120.752 Y70.770 E2.5137
G1 X121.773 Y71.653 E2.5798
G1 X121.817 Y71.694 E2.5827
G1 X122.611 Y72.474 E2.6373
G1 X122.652 Y72.517 E2.6402
G1 X123.570 Y73.538 E2.7074
G1 X123.615 Y73.592 E2.7109
G1 X124.528 Y74.775 E2.7841
G1 X124.566 Y74.828 E2.7873
G1 X125.349 Y76.002 E2.8563
G1 X125.383 Y76.056 E2.8595
G1 X126.096 Y77.300 E2.9297
G1 X126.128 Y77.359 E2.9330
G1 X126.835 Y78.825 E3.0127
G1 X126.860 Y78.883 E3.0158
G1 X127.357 Y80.118 E3.0810
G1 X127.374 Y80.165 E3.0835
G1 X127.949 Y81.844 E3.1704
G1 X127.965 Y81.894 E3.1730
G1 X128.358 Y83.294 E3.2442
G1 X128.371 Y83.347 E3.2469
G1 X128.791 Y85.263 E3.3429
G1 X128.803 Y85.327 E3.3461
G1 X129.091 Y87.285 E3.4431
G1 X129.098 Y87.350 E3.4463
G1 X129.249 Y89.304 E3.5422
G1 X129.251 Y89.340 E3.5440
G1 X129.799 Y103.452 E4.2357
G1 X129.800 Y103.484 E4.2373
G1 X129.809 Y105.395 E4.3309
G1 X129.807 Y105.461 E4.3341
G1 X129.683 Y107.373 E4.4280
G1 X129.676 Y107.441 E4.4313
G1 X129.417 Y109.322 E4.5243
G1 X129.405 Y109.392 E4.5278
G1 X129.009 Y111.234 E4.6201
G1 X128.991 Y111.304 E4.6236
G1 X128.453 Y113.118 E4.7163
G1 X128.429 Y113.188 E4.7199
G1 X127.758 Y114.939 E4.8118
G1 X127.729 Y115.006 E4.8154
G1 X126.934 Y116.679 E4.9061
G1 X126.900 Y116.744 E4.9097
G1 X125.998 Y118.316 E4.9984
G1 X125.960 Y118.376 E5.0019
G1 X125.014 Y119.770 E5.0844
G1 X124.967 Y119.834 E5.0883
G1 X123.593 Y121.531 E5.1953
G1 X123.547 Y121.584 E5.1987
G1 X122.563 Y122.629 E5.2690
G1 X122.517 Y122.674 E5.2722
G1 X121.413 Y123.699 E5.3459
G1 X121.355 Y123.748 E5.3497
G1 X119.781 Y124.989 E5.4478
G1 X119.716 Y125.035 E5.4517
G1 X118.271 Y125.988 E5.5365
G1 X118.201 Y126.030 E5.5405
G1 X116.706 Y126.841 E5.6238
G1 X116.645 Y126.872 E5.6272
G1 X115.180 Y127.534 E5.7059
G1 X115.121 Y127.558 E5.7090
G1 X114.448 Y127.809 E5.7442
G1 X114.428 Y127.817 E5.7453
G1 X113.116 Y128.272 E5.8133
G1 X113.044 Y128.293 E5.8170
G1 X111.690 Y128.646 E5.8855
G1 X111.669 Y128.651 E5.8866
G1 X110.969 Y128.817 E5.9218
G1 X110.918 Y128.828 E5.9244
G1 X109.362 Y129.107 E6.0018
G1 X109.307 Y129.115 E6.0045
G1 X107.723 Y129.304 E6.0827
G1 X107.675 Y129.309 E6.0850
G1 X105.800 Y129.438 E6.1771
G1 X105.757 Y129.440 E6.1791
G1 X103.768 Y129.487 E6.2766
G1 X103.746 Y129.487 E6.2777
G1 X91.257 Y129.487 E6.8894
G1 X91.239 Y129.487 E6.8903
G1 X89.765 Y129.460 E6.9625
G1 X89.736 Y129.459 E6.9639
G1 X88.157 Y129.383 E7.0413
G1 X88.113 Y129.380 E7.0435
G1 X86.741 Y129.249 E7.1110
G1 X86.706 Y129.245 E7.1127
G1 X85.444 Y129.078 E7.1751
G1 X85.392 Y129.069 E7.1777
G1 X83.761 Y128.758 E7.2590
G1 X83.701 Y128.745 E7.2620
G1 X81.957 Y128.294 E7.3502
G1 X81.883 Y128.271 E7.3540
G1 X80.181 Y127.677 E7.4423
G1 X80.110 Y127.649 E7.4461
G1 X78.365 Y126.877 E7.5395
G1 X78.297 Y126.843 E7.5432
G1 X76.799 Y126.030 E7.6267
G1 X76.729 Y125.988 E7.6307
G1 X75.284 Y125.035 E7.7155
G1 X75.219 Y124.989 E7.7194
G1 X73.645 Y123.748 E7.8176
G1 X73.587 Y123.699 E7.8213
G1 X72.482 Y122.673 E7.8951
G1 X72.434 Y122.626 E7.8984
G1 X71.298 Y121.411 E7.9799
G1 X71.250 Y121.356 E7.9835
G1 X70.028 Y119.827 E8.0793
G1 X69.984 Y119.768 E8.0830
G1 X69.040 Y118.376 E8.1653
G1 X69.002 Y118.316 E8.1688
G1 X68.100 Y116.744 E8.2576
G1 X68.066 Y116.679 E8.2612
G1 X67.271 Y115.006 E8.3519
G1 X67.242 Y114.939 E8.3555
G1 X66.571 Y113.188 E8.4473
G1 X66.547 Y113.118 E8.4509
G1 X66.009 Y111.304 E8.5436
G1 X65.991 Y111.234 E8.5472
G1 X65.595 Y109.392 E8.6395
G1 X65.583 Y109.322 E8.6429
G1 X65.324 Y107.441 E8.7359
G1 X65.317 Y107.373 E8.7393
G1 X65.193 Y105.461 E8.8331
G1 X65.191 Y105.395 E8.8363
G1 X65.200 Y103.484 E8.9300
G1 X65.201 Y103.452 E8.9315
G1 X65.749 Y89.340 E9.6232
G1 X65.751 Y89.304 E9.6250
G1 X65.902 Y87.348 E9.7211
G1 X65.910 Y87.278 E9.7245
G1 X66.236 Y85.136 E9.8307
G1 X66.248 Y85.075 E9.8337
G1 X66.629 Y83.345 E9.9205
G1 X66.642 Y83.293 E9.9231
G1 X67.035 Y81.895 E9.9943
G1 X67.051 Y81.844 E9.9968
G1 X67.626 Y80.165 E10.0838
G1 X67.643 Y80.118 E10.0862
G1 X68.140 Y78.883 E10.1514
G1 X68.165 Y78.825 E10.1545
G1 X68.872 Y77.360 E10.2342
G1 X68.904 Y77.300 E10.2375
G1 X69.617 Y76.055 E10.3078
G1 X69.652 Y76.000 E10.3110
G1 X70.526 Y74.695 E10.3879
G1 X70.567 Y74.638 E10.3914
G1 X71.391 Y73.585 E10.4568
G1 X71.432 Y73.536 E10.4600
G1 X72.254 Y72.621 E10.5202
G1 X72.348 Y72.517 F1152
G1 X72.389 Y72.474 F1152
G92 E0
G1 E-0.8000 F1800
G1 X72.688 Y72.769 F7800
G1 E0.1200 F1800
G92 E0
G1 X73.473 Y71.998 E0.0539 F1152
G1 X73.507 Y71.967 E0.0562
G1 X74.517 Y71.093 E0.1216
G1 X74.556 Y71.061 E0.1241
G1 X75.617 Y70.264 E0.1891
G1 X75.657 Y70.235 E0.1915
G1 X76.762 Y69.515 E0.2561
G1 X76.798 Y69.493 E0.2582
G1 X77.721 Y68.965 E0.3102
G1 X77.754 Y68.948 E0.3121
G1 X78.713 Y68.463 E0.3647
G1 X78.758 Y68.442 E0.3671
G1 X80.527 Y67.694 E0.4612
G1 X80.573 Y67.676 E0.4636
G1 X81.652 Y67.303 E0.5195
G1 X81.696 Y67.289 E0.5218
G1 X83.540 Y66.779 E0.6155
G1 X83.585 Y66.768 E0.6177
G1 X85.006 Y66.470 E0.6889
G1 X85.046 Y66.463 E0.6908
G1 X86.629 Y66.219 E0.7693
G1 X86.663 Y66.215 E0.7710
G1 X87.922 Y66.080 E0.8330
G1 X87.947 Y66.077 E0.8343
G1 X89.166 Y65.988 E0.8941
G1 X89.200 Y65.987 E0.8958
G1 X91.260 Y65.932 E0.9967
G1 X91.280 Y65.932 E0.9977
G1 X103.720 Y65.932 E1.6070
G1 X103.740 Y65.932 E1.6080
G1 X105.800 Y65.987 E1.7089
G1 X105.834 Y65.988 E1.7106
G1 X107.055 Y66.077 E1.7705
G1 X107.085 Y66.080 E1.7720
G1 X108.641 Y66.258 E1.8487
G1 X108.671 Y66.262 E1.8502
G1 X109.962 Y66.464 E1.9142
G1 X110.009 Y66.473 E1.9165
G1 X112.129 Y66.947 E2.0229
G1 X112.175 Y66.959 E2.0253
G1 X113.319 Y67.294 E2.0837
G1 X113.353 Y67.305 E2.0854
G1 X114.419 Y67.674 E2.1407
G1 X114.450 Y67.685 E2.1423
G1 X115.243 Y67.999 E2.1841
G1 X115.270 Y68.011 E2.1855
G1 X116.259 Y68.450 E2.2385
G1 X116.293 Y68.466 E2.2403
G1 X117.246 Y68.947 E2.2926
G1 X117.279 Y68.965 E2.2945
G1 X118.202 Y69.493 E2.3465
G1 X118.238 Y69.515 E2.3486
G1 X119.343 Y70.235 E2.4132
G1 X119.383 Y70.264 E2.4156
G1 X120.444 Y71.061 E2.4806
G1 X120.483 Y71.093 E2.4831
G1 X121.493 Y71.967 E2.5485
G1 X121.527 Y71.998 E2.5508
G1 X122.312 Y72.769 E2.6047
G1 X122.344 Y72.802 E2.6069
G1 X123.253 Y73.813 E2.6735
G1 X123.288 Y73.855 E2.6762
G1 X124.191 Y75.026 E2.7486
G1 X124.221 Y75.067 E2.7511
G1 X124.996 Y76.229 E2.8195
G1 X125.022 Y76.271 E2.8219
G1 X125.728 Y77.503 E2.8915
G1 X125.753 Y77.549 E2.8940
G1 X126.453 Y79.001 E2.9730
G1 X126.473 Y79.046 E2.9754
G1 X126.965 Y80.270 E3.0400
G1 X126.979 Y80.306 E3.0419
G1 X127.550 Y81.975 E3.1283
G1 X127.562 Y82.014 E3.1303
G1 X127.952 Y83.402 E3.2009
G1 X127.962 Y83.443 E3.2030
G1 X128.379 Y85.346 E3.2984
G1 X128.388 Y85.396 E3.3009
G1 X128.674 Y87.339 E3.3971
G1 X128.680 Y87.390 E3.3996
G1 X128.830 Y89.332 E3.4950
G1 X128.832 Y89.360 E3.4964
G1 X129.379 Y103.464 E4.1877
G1 X129.380 Y103.489 E4.1890
G1 X129.389 Y105.390 E4.2821
G1 X129.387 Y105.441 E4.2846
G1 X129.265 Y107.338 E4.3777
G1 X129.259 Y107.391 E4.3803
G1 X129.002 Y109.257 E4.4725
G1 X128.993 Y109.311 E4.4752
G1 X128.600 Y111.138 E4.5667
G1 X128.586 Y111.192 E4.5695
G1 X128.052 Y112.991 E4.6614
G1 X128.034 Y113.045 E4.6642
G1 X127.369 Y114.781 E4.7552
G1 X127.346 Y114.833 E4.7580
G1 X126.558 Y116.492 E4.8480
G1 X126.532 Y116.542 E4.8507
G1 X125.637 Y118.100 E4.9387
G1 X125.608 Y118.147 E4.9414
G1 X124.672 Y119.527 E5.0231
G1 X124.635 Y119.577 E5.0262
G1 X123.271 Y121.260 E5.1323
G1 X123.235 Y121.302 E5.1350
G1 X122.262 Y122.336 E5.2045
G1 X122.226 Y122.371 E5.2070
G1 X121.133 Y123.385 E5.2800
G1 X121.088 Y123.424 E5.2829
G1 X119.528 Y124.653 E5.3802
G1 X119.477 Y124.689 E5.3832
G1 X118.047 Y125.633 E5.4672
G1 X117.993 Y125.665 E5.4703
G1 X116.513 Y126.469 E5.5528
G1 X116.465 Y126.493 E5.5554
G1 X115.014 Y127.148 E5.6334
G1 X114.968 Y127.167 E5.6358
G1 X114.304 Y127.415 E5.6705
G1 X114.288 Y127.421 E5.6714
G1 X112.986 Y127.872 E5.7388
G1 X112.930 Y127.889 E5.7417
G1 X111.586 Y128.239 E5.8097
G1 X111.570 Y128.243 E5.8105
G1 X110.877 Y128.407 E5.8454
G1 X110.838 Y128.416 E5.8474
G1 X109.294 Y128.693 E5.9242
G1 X109.251 Y128.699 E5.9263
G1 X107.678 Y128.887 E6.0039
G1 X107.641 Y128.890 E6.0057
G1 X105.776 Y129.018 E6.0973
G1 X105.743 Y129.020 E6.0989
G1 X103.761 Y129.067 E6.1960
G1 X103.743 Y129.067 E6.1969
G1 X91.259 Y129.067 E6.8084
G1 X91.245 Y129.067 E6.8090
G1 X89.776 Y129.040 E6.8810
G1 X89.754 Y129.040 E6.8821
